packages/kaspersky-hexa-ui-icons/src/iconsSVGs/16/IOs.svg

<svg width="16" height="16" viewBox="0 0 16 16" fill="none" xmlns="http://www.w3.org/2000/svg">
<path d="M8.03339 3.38137C7.67293 3.42629 7.40683 3.40519 7.40683 3.40519C7.40683 3.40519 7.30295 2.09486 8.04706 1.35075C8.79117 0.606632 10.1015 0.710516 10.1015 0.710516C10.1015 0.710516 10.2054 2.02085 9.46127 2.76496C9.07327 3.15296 8.53132 3.3104 8.10147 3.37223L8.03339 3.38137Z" fill="black"/>
<path fill-rule="evenodd" clip-rule="evenodd" d="M13.3035 6.60881C13.2108 6.6648 12.2038 7.27286 12.215 8.51385C12.2289 10.0078 13.5035 10.5224 13.5654 10.5474C13.5666 10.5479 13.5673 10.5482 13.5676 10.5483C13.8773 10.6851 14.035 11.0326 13.9339 11.3557C13.9334 11.3573 13.9326 11.3599 13.9316 11.3633C13.8995 11.4687 13.6125 12.4126 12.946 13.3866C12.6461 13.8249 12.3362 14.259 11.983 14.5892C11.5398 15.0036 11.0292 15.2662 10.4139 15.2776C9.95577 15.286 9.62102 15.1838 9.30156 15.0524C9.24725 15.0301 9.19376 15.0061 9.1396 14.9818C8.89922 14.8739 8.64582 14.7602 8.25056 14.7602C7.83715 14.7602 7.5719 14.876 7.31988 14.986C7.27708 15.0047 7.23466 15.0232 7.19196 15.0409C6.88192 15.1698 6.56354 15.2767 6.14137 15.2933L6.14037 15.2933C5.6425 15.3121 5.18616 15.1332 4.77401 14.8181C4.2972 14.4536 3.87825 13.889 3.51022 13.3575C2.27108 11.566 1.38304 8.28767 2.65459 6.07982C3.34382 4.88347 4.57988 4.13305 5.91668 4.11298C6.42558 4.10353 6.92304 4.26189 7.36819 4.4355C7.44445 4.46525 7.51777 4.49701 7.58803 4.52746C7.77384 4.60797 7.93826 4.67922 8.07922 4.67922C8.21528 4.67922 8.38699 4.60406 8.5883 4.51594C8.68706 4.47272 8.79293 4.42638 8.90521 4.38426C9.42187 4.1905 10.015 4.02663 10.6198 4.08305C11.1532 4.10834 12.5836 4.31222 13.5075 5.6646C13.61 5.81459 13.6467 5.99993 13.6092 6.17765C13.5716 6.35533 13.463 6.50995 13.3086 6.60567C13.3075 6.60638 13.3058 6.60743 13.3035 6.60881ZM10.884 8.52612C10.8991 10.1495 11.8476 11.0475 12.4784 11.4664C12.3474 11.7803 12.1424 12.204 11.8476 12.635L11.8368 12.6507C11.597 13.0012 11.3564 13.353 11.0741 13.617C10.8774 13.8007 10.6623 13.9418 10.3893 13.9468C10.0713 13.9526 9.85621 13.8536 9.63737 13.7527C9.57114 13.7222 9.50456 13.6916 9.43468 13.6636C9.11448 13.5355 8.75486 13.4292 8.25056 13.4292C7.63818 13.4292 7.23503 13.5775 6.85945 13.7363C6.82674 13.7502 6.79441 13.7643 6.76214 13.7784C6.56186 13.8659 6.36373 13.9524 6.08971 13.9632C5.83555 13.9727 5.62625 13.815 5.42531 13.6267C5.11933 13.3399 4.85199 12.9572 4.60467 12.6C3.99051 11.7121 3.46395 10.3841 3.36728 9.07009C3.3068 8.24779 3.41363 7.42884 3.80795 6.74413C4.25952 5.96034 5.06192 5.45654 5.93782 5.44381L5.94085 5.44377C6.30195 5.43688 6.64883 5.57784 6.96059 5.70454C7.0071 5.72344 7.05282 5.74202 7.09769 5.75974C7.46929 5.90649 7.80653 6.01025 8.07922 6.01025C8.34532 6.01025 8.7117 5.88937 9.13135 5.72392C9.15782 5.71349 9.18464 5.70283 9.2118 5.69203C9.59336 5.54038 10.0418 5.36215 10.5071 5.40932C10.5202 5.41065 10.5334 5.4116 10.5465 5.41214C10.8078 5.423 11.443 5.49683 11.9929 5.95599C11.4929 6.4377 10.8729 7.28558 10.884 8.52612Z" fill="black"/>
</svg>

<svg xmlns="http://www.w3.org/2000/svg" width="16" height="16" fill="none" viewBox="0 0 16 16"><path fill="#000" d="M8.0334 3.3814c-.3605.0449-.6266.0238-.6266.0238s-.1038-1.3103.6403-2.0544c.744-.7442 2.0544-.6403 2.0544-.6403s.1039 1.3103-.6402 2.0545c-.388.388-.93.5454-1.3598.6072z"/><path fill="#000" fill-rule="evenodd" d="M13.3035 6.6088c-.0927.056-1.0997.664-1.0885 1.905.0139 1.494 1.2885 2.0086 1.3504 2.0336l.0022.0009a.6655.6655 0 0 1 .364.815c-.0321.1054-.3191 1.0493-.9856 2.0233-.2999.4383-.6098.8724-.963 1.2026-.4432.4144-.9538.677-1.5691.6884-.4581.0084-.7929-.0938-1.1123-.2252-.0544-.0223-.1078-.0463-.162-.0706-.2404-.1079-.4938-.2216-.889-.2216-.4135 0-.6787.1158-.9307.2258a7 7 0 0 1-.128.0549c-.31.1289-.6284.2358-1.0505.2524h-.001c-.4979.0188-.9542-.1601-1.3664-.4752-.4768-.3645-.8957-.9291-1.2638-1.4606-1.2391-1.7915-2.1272-5.0698-.8556-7.2777.6892-1.1963 1.9253-1.9467 3.262-1.9668.509-.0095 1.0064.1489 1.4516.3225a6 6 0 0 1 .2198.092c.1858.0805.3503.1517.4912.1517.136 0 .3078-.0751.5091-.1633.0988-.0432.2046-.0895.317-.1316.5166-.1938 1.1097-.3577 1.7145-.3012.5334.0252 1.9638.2291 2.8877 1.5815a.6657.6657 0 0 1-.204.9442M10.884 8.5261c.0151 1.6234.9636 2.5214 1.5944 2.9403-.131.3139-.336.7376-.6308 1.1686l-.0108.0157c-.2398.3505-.4804.7023-.7627.9663-.1967.1837-.4118.3248-.6848.3298-.318.0058-.533-.0932-.752-.1941a4.4 4.4 0 0 0-.2026-.0891c-.3202-.1281-.6798-.2344-1.1841-.2344-.6124 0-1.0156.1483-1.3912.3071q-.049.0209-.0973.0421c-.2002.0875-.3984.174-.6724.1848-.2542.0095-.4634-.1482-.6644-.3365-.306-.2868-.5733-.6695-.8206-1.0267-.6142-.8879-1.1408-2.2159-1.2374-3.53-.0605-.8222.0463-1.6412.4406-2.3259.4516-.7838 1.254-1.2876 2.13-1.3003h.003c.361-.007.708.134 1.0197.2607q.0698.0286.137.0552c.3717.1468.709.2506.9816.2506.2661 0 .6325-.121 1.0521-.2864l.0805-.0319c.3816-.1516.83-.3299 1.2953-.2827a1 1 0 0 0 .0394.0028c.2613.0109.8965.0847 1.4464.5439-.5.4817-1.12 1.3296-1.1089 2.5701" clip-rule="evenodd"/></svg>
